X:19
T:Redican's Mother
Z: id:dc-slipjig-20
M:9/8
L:1/8
K:D Major
FAA FAd AFD|FAA FAd B2A|FAA FAd AFD|EDB, DFA B2A:|!
fgf fed edB|Aff fef g2e|fgf fed edB|AFD DFA B2A:|!